src/assets/skills/react-icon.svg

<svg width="122" height="110" viewBox="0 0 122 110" fill="none" xmlns="http://www.w3.org/2000/svg">
<g clip-path="url(#clip0_35_135)">
<path fill-rule="evenodd" clip-rule="evenodd" d="M122 55.0151C122 46.8327 111.883 39.0825 96.3649 34.2676C99.9491 18.2546 98.3506 5.5186 91.3411 1.43745C89.7228 0.4825 87.8364 0.0301563 85.7713 0.0301563V5.64927C86.9131 5.64927 87.8364 5.88047 88.6108 6.30266C91.9964 8.26282 93.4559 15.7416 92.3141 25.3614C92.0361 27.7237 91.5894 30.2166 91.0433 32.7598C86.1685 31.5535 80.8468 30.6187 75.2572 30.0155C71.9014 25.3614 68.4165 21.1295 64.9118 17.4303C73.0133 9.79073 80.6185 5.61912 85.7912 5.61912V0C78.9505 0 70.005 4.93558 60.9504 13.5C51.8957 4.98584 42.9502 0.100521 36.1095 0.100521V5.71964C41.2524 5.71964 48.8874 9.87115 56.9989 17.4504C53.514 21.1496 50.0391 25.3514 46.7329 30.0155C41.1134 30.6187 35.7918 31.5535 30.917 32.7799C30.3411 30.2668 29.9242 27.8242 29.6263 25.482C28.4548 15.8622 29.9043 8.38344 33.2601 6.39313C34.0047 5.94078 34.9777 5.73974 36.1195 5.73974V0.130677C34.0345 0.130677 32.1382 0.583021 30.5 1.53797C23.5104 5.61912 21.9417 18.335 25.5557 34.2977C10.0674 39.1227 0 46.8528 0 55.0151C0 63.1975 10.117 70.9476 25.6351 75.7626C22.0509 91.7756 23.6494 104.512 30.6589 108.593C32.2772 109.548 34.1636 110 36.2585 110C43.0991 110 52.0446 105.064 61.0993 96.5C70.154 105.014 79.0994 109.899 85.9401 109.899C88.0251 109.899 89.9214 109.447 91.5596 108.492C98.5492 104.411 100.118 91.6951 96.5039 75.7324C111.933 70.9275 122 63.1673 122 55.0151ZM72.3382 55.0151C72.3382 48.6622 67.2549 43.5054 60.9702 43.5054C54.6955 43.5054 49.6022 48.6521 49.6022 55.0151C49.6022 61.3781 54.6855 66.5247 60.9702 66.5247C67.2549 66.5147 72.3382 61.368 72.3382 55.0151ZM89.6235 38.218C88.7002 41.4649 87.5584 44.8122 86.2677 48.1596C85.2451 46.1491 84.1828 44.1287 83.0112 42.1183C81.8695 40.1078 80.6483 38.1376 79.4271 36.2277C82.9616 36.7605 86.367 37.4139 89.6235 38.218ZM78.2357 65.037C76.2996 68.4346 74.304 71.6613 72.2389 74.6569C68.5356 74.9886 64.7827 75.1595 61 75.1595C57.2471 75.1595 53.4941 74.9785 49.8107 74.677C47.7456 71.6814 45.7301 68.4849 43.7941 65.1074C41.9077 61.8103 40.1901 58.4629 38.6214 55.0854C40.1603 51.7079 41.9077 48.3405 43.7643 45.0434C45.7004 41.6458 47.696 38.4191 49.7611 35.4236C53.4644 35.0918 57.2173 34.921 61 34.921C64.7529 34.921 68.5059 35.1019 72.1893 35.4035C74.2544 38.399 76.2699 41.5955 78.2059 44.973C80.0923 48.2701 81.8099 51.6175 83.3786 54.995C81.8099 58.3624 80.1022 61.7299 78.2357 65.037ZM86.2677 61.76C87.6081 65.1375 88.7498 68.505 89.703 71.782C86.4464 72.5861 83.0112 73.2697 79.4569 73.7924C80.6781 71.8523 81.8893 69.862 83.041 67.8214C84.1729 65.811 85.2451 63.7704 86.2677 61.76ZM61.0496 88.6192C58.7363 86.2067 56.423 83.5128 54.1395 80.5675C56.3734 80.668 58.6668 80.7484 60.9801 80.7484C63.3133 80.7484 65.6266 80.6982 67.8903 80.5675C65.6465 83.5128 63.3332 86.2067 61.0496 88.6192ZM42.5531 73.7924C39.0186 73.2596 35.6131 72.6062 32.3566 71.8021C33.2799 68.5552 34.4217 65.2079 35.7124 61.8606C36.735 63.871 37.7974 65.8914 38.9689 67.9019C40.1405 69.9223 41.3319 71.8825 42.5531 73.7924ZM60.9206 21.4009C63.2339 23.8134 65.5472 26.5074 67.8307 29.4526C65.5968 29.3521 63.3034 29.2717 60.9901 29.2717C58.6569 29.2717 56.3436 29.3219 54.0799 29.4526C56.3237 26.5074 58.637 23.8134 60.9206 21.4009ZM42.5233 36.2277C41.3021 38.1678 40.0908 40.1581 38.9391 42.1987C37.7974 44.2091 36.7251 46.2296 35.7025 48.24C34.3621 44.8625 33.2204 41.495 32.2673 38.218C35.5337 37.434 38.9689 36.7605 42.5233 36.2277ZM20.0156 67.7511C11.2091 63.9514 5.52018 58.9655 5.52018 55.0151C5.52018 51.0646 11.2191 46.0486 20.0156 42.2791C22.1502 41.3442 24.4933 40.52 26.9059 39.7359C28.3257 44.6715 30.1922 49.8081 32.5055 55.0653C30.222 60.3025 28.3753 65.4089 26.9854 70.3244C24.5231 69.5403 22.18 68.6859 20.0156 67.7511ZM33.3991 103.728C30.0135 101.767 28.554 94.2886 29.6958 84.6687C29.9738 82.3065 30.4206 79.8136 30.9666 77.2704C35.8415 78.4767 41.1631 79.4115 46.7528 80.0146C50.1086 84.6687 53.5934 88.9007 57.0981 92.5998C48.9867 100.229 41.3815 104.411 36.2088 104.411C35.0869 104.381 34.1437 104.16 33.3991 103.728ZM92.3836 84.5481C93.5552 94.168 92.1056 101.647 88.7498 103.637C88.0052 104.089 87.0322 104.29 85.8905 104.29C80.7476 104.29 73.1126 100.139 65.0011 92.5596C68.486 88.8605 71.9609 84.6587 75.2671 79.9945C80.8866 79.3914 86.2082 78.4566 91.083 77.2201C91.6589 79.7633 92.1056 82.206 92.3836 84.5481ZM101.955 67.7511C99.82 68.6859 97.4769 69.5102 95.0643 70.2943C93.6445 65.3587 91.778 60.2221 89.4647 54.9648C91.7482 49.7277 93.5949 44.6212 94.9849 39.7057C97.4471 40.4898 99.7803 41.3442 101.974 42.269C110.781 46.0687 116.47 51.0546 116.47 55.005C116.45 58.9656 110.761 63.9715 101.955 67.7511Z" fill="#00D8FF"/>
</g>
<defs>
<clipPath id="clip0_35_135">
<rect width="122" height="110" fill="white"/>
</clipPath>
</defs>
</svg>

<svg xmlns="http://www.w3.org/2000/svg" width="122" height="110" fill="none"><g clip-path="url(#a)"><path fill="#00D8FF" fill-rule="evenodd" d="M122 55.015c0-8.182-10.117-15.932-25.635-20.747 3.584-16.013 1.986-28.75-5.024-32.83C89.723.481 87.836.03 85.771.03v5.62c1.142 0 2.065.23 2.84.653 3.385 1.96 4.845 9.439 3.703 19.058-.278 2.363-.725 4.856-1.27 7.399-4.876-1.206-10.197-2.141-15.787-2.744-3.356-4.655-6.84-8.886-10.345-12.586 8.101-7.64 15.706-11.81 20.88-11.81V0C78.95 0 70.004 4.936 60.95 13.5 51.896 4.986 42.95.1 36.11.1v5.62c5.142 0 12.777 4.151 20.889 11.73-3.485 3.7-6.96 7.901-10.266 12.566-5.62.603-10.941 1.538-15.816 2.764a75.048 75.048 0 0 1-1.29-7.298c-1.172-9.62.277-17.099 3.633-19.089.745-.452 1.718-.653 2.86-.653V.13c-2.085 0-3.982.453-5.62 1.408-6.99 4.081-8.558 16.797-4.944 32.76C10.067 39.123 0 46.853 0 55.015c0 8.182 10.117 15.933 25.635 20.748-3.584 16.013-1.986 28.749 5.024 32.83 1.618.955 3.505 1.407 5.6 1.407 6.84 0 15.786-4.936 24.84-13.5 9.055 8.514 18 13.399 24.841 13.399 2.085 0 3.981-.452 5.62-1.407 6.99-4.081 8.558-16.797 4.944-32.76C111.933 70.927 122 63.167 122 55.015Zm-49.662 0c0-6.353-5.083-11.51-11.368-11.51-6.274 0-11.368 5.147-11.368 11.51 0 6.363 5.084 11.51 11.368 11.51 6.285-.01 11.368-5.157 11.368-11.51Zm17.286-16.797c-.924 3.247-2.066 6.594-3.356 9.942-1.023-2.01-2.085-4.031-3.257-6.042-1.141-2.01-2.363-3.98-3.584-5.89 3.535.532 6.94 1.186 10.197 1.99ZM78.236 65.037c-1.936 3.398-3.932 6.624-5.997 9.62-3.703.332-7.456.502-11.239.502-3.753 0-7.506-.18-11.19-.482a136.287 136.287 0 0 1-6.016-9.57 132.89 132.89 0 0 1-5.173-10.022c1.54-3.377 3.287-6.745 5.143-10.042 1.936-3.397 3.932-6.624 5.997-9.62A125.99 125.99 0 0 1 61 34.922c3.753 0 7.506.18 11.19.483a136.261 136.261 0 0 1 6.016 9.569 132.89 132.89 0 0 1 5.173 10.022 145.088 145.088 0 0 1-5.143 10.042Zm8.032-3.277a112.156 112.156 0 0 1 3.435 10.022 109.016 109.016 0 0 1-10.246 2.01 145.25 145.25 0 0 0 3.584-5.97 162.92 162.92 0 0 0 3.227-6.062ZM61.05 88.62c-2.314-2.413-4.627-5.107-6.91-8.053 2.233.101 4.527.181 6.84.181 2.333 0 4.647-.05 6.91-.18a99.14 99.14 0 0 1-6.84 8.051ZM42.553 73.791c-3.534-.532-6.94-1.186-10.196-1.99.923-3.247 2.065-6.594 3.355-9.941 1.023 2.01 2.085 4.03 3.257 6.04 1.172 2.021 2.363 3.981 3.584 5.891Zm18.368-52.391c2.313 2.412 4.626 5.106 6.91 8.052-2.234-.1-4.528-.181-6.84-.181-2.334 0-4.647.05-6.911.18a99.157 99.157 0 0 1 6.84-8.051ZM42.523 36.228a145.251 145.251 0 0 0-3.584 5.97 149.159 149.159 0 0 0-3.236 6.042 112.123 112.123 0 0 1-3.436-10.022 120.707 120.707 0 0 1 10.256-1.99ZM20.016 67.75c-8.807-3.8-14.496-8.786-14.496-12.736 0-3.95 5.7-8.966 14.496-12.736 2.134-.935 4.477-1.759 6.89-2.543 1.42 4.936 3.286 10.072 5.6 15.33-2.284 5.236-4.13 10.343-5.52 15.258-2.463-.784-4.806-1.638-6.97-2.573Zm13.383 35.977c-3.386-1.961-4.845-9.44-3.703-19.06.278-2.362.725-4.854 1.27-7.398 4.876 1.207 10.197 2.142 15.787 2.745 3.356 4.654 6.84 8.886 10.345 12.585-8.111 7.629-15.716 11.811-20.89 11.811-1.121-.03-2.064-.251-2.809-.683Zm58.985-19.18c1.171 9.62-.278 17.099-3.634 19.089-.745.452-1.718.653-2.86.653-5.142 0-12.777-4.151-20.889-11.73 3.485-3.7 6.96-7.901 10.266-12.566 5.62-.603 10.941-1.537 15.816-2.774.576 2.543 1.023 4.986 1.3 7.328Zm9.571-16.797c-2.135.935-4.478 1.76-6.89 2.543-1.42-4.935-3.287-10.072-5.6-15.33 2.283-5.236 4.13-10.343 5.52-15.258a82.273 82.273 0 0 1 6.989 2.563c8.807 3.8 14.496 8.786 14.496 12.736-.02 3.96-5.709 8.966-14.515 12.746Z" clip-rule="evenodd"/></g><defs><clipPath id="a"><path fill="#fff" d="M0 0h122v110H0z"/></clipPath></defs></svg>
